X:1
T:[ID 8-95b]
T:[ID 8-95b]
T:Bezeichnung standardisiert: Menuett Men
T:Urheber unbekannt Datum in der hier transkribierten schriftlichen Quelle: 1792
C:Urheber unbekannt
C:Datum in der hier transkribierten schriftlichen Quelle: 1792
L:1/8
M:3/4
K:D
V:1 treble 
V:1
 d3 efg | a4 fd | e2 e2 e2 | g2 (^ga)(ga) | d3 efg | a4 fd | e2 e2 e2 | c4 d2 :: g2 e2 c2 | %9
 ddff a2 | g2 (ef)(ef) | d2 A2 F2 | d3 efg | a4 fd"^[Notat bricht ab]" | x6 | %15

